X:49
T: HANS PHILIPPCHEN GEIG EINMAL
N: K0556
O: Europa, Mitteleuropa, Deutschland, Hessen; Schlesien
R: Kinder -, Spiel - Lied
M: 2/4
L: 1/16
K: F
 | c3cc2c2 | A2F2F4 |
C3FF2A2 | A4G4 |
B3BB2B2 | G2E2E4 |
C3GG2A2 | G4F4

